public/logos/TK.svg

<?xml version="1.0" encoding="UTF-8"?>
<svg xmlns="http://www.w3.org/2000/svg" xmlns:xlink="http://www.w3.org/1999/xlink" width="176pt" height="31.64pt" viewBox="0 0 176 31.64" version="1.1">
<defs>
<clipPath id="clip1">
  <path d="M 144 0 L 176 0 L 176 31.640625 L 144 31.640625 Z M 144 0 "/>
</clipPath>
</defs>
<g id="surface1">
<g clip-path="url(#clip1)" clip-rule="nonzero">
<path style=" stroke:none;fill-rule:nonzero;fill:rgb(100%,100%,100%);fill-opacity:1;" d="M 144.355469 15.820312 C 144.355469 7.085938 151.4375 0.00390625 160.183594 0.00390625 C 168.917969 0.00390625 176 7.085938 176 15.820312 C 176 24.558594 168.917969 31.640625 160.183594 31.640625 C 151.4375 31.640625 144.355469 24.558594 144.355469 15.820312 "/>
</g>
<path style=" stroke:none;fill-rule:nonzero;fill:rgb(89.382935%,12.025452%,14.321899%);fill-opacity:1;" d="M 145.921875 15.820312 C 145.921875 7.949219 152.304688 1.5625 160.183594 1.5625 C 168.054688 1.5625 174.4375 7.949219 174.4375 15.820312 C 174.4375 23.695312 168.054688 30.082031 160.183594 30.082031 C 152.304688 30.082031 145.921875 23.695312 145.921875 15.820312 "/>
<path style=" stroke:none;fill-rule:nonzero;fill:rgb(89.382935%,12.025452%,14.321899%);fill-opacity:1;" d="M 174.039062 15.820312 C 174.039062 23.476562 167.835938 29.679688 160.183594 29.679688 C 152.527344 29.679688 146.316406 23.476562 146.316406 15.820312 C 146.316406 8.167969 152.527344 1.964844 160.183594 1.964844 C 167.835938 1.964844 174.039062 8.167969 174.039062 15.820312 "/>
<path style=" stroke:none;fill-rule:nonzero;fill:rgb(100%,100%,100%);fill-opacity:1;" d="M 171.960938 18.269531 L 148.0625 23.351562 C 148.0625 23.351562 148.023438 23.355469 147.984375 23.367188 C 147.824219 23.109375 147.675781 22.847656 147.53125 22.578125 C 147.570312 22.570312 147.613281 22.558594 147.613281 22.558594 C 151.496094 21.824219 155.03125 20.136719 156.519531 15.765625 C 158.125 11.082031 157.023438 5.980469 153.730469 3.101562 C 153.734375 3.097656 153.695312 3.070312 153.667969 3.046875 C 153.988281 2.886719 154.308594 2.730469 154.640625 2.59375 C 154.683594 2.609375 154.738281 2.640625 154.738281 2.640625 C 161.429688 5.441406 164.867188 9.226562 164.867188 12.867188 C 164.835938 15.105469 163.6875 16.652344 162.230469 17.871094 L 171.960938 17.871094 C 172.230469 17.871094 172.300781 18.199219 171.960938 18.269531 "/>
<path style=" stroke:none;fill-rule:nonzero;fill:rgb(14.79187%,28.326416%,61.029053%);fill-opacity:1;" d="M 82.019531 21.007812 L 78.117188 10.636719 L 74.742188 10.636719 L 70.839844 21.007812 L 73.871094 21.007812 L 74.386719 19.511719 L 78.472656 19.511719 L 78.988281 21.007812 Z M 77.746094 17.179688 L 75.121094 17.179688 L 76.4375 13.277344 Z M 77.746094 17.179688 "/>
<path style=" stroke:none;fill-rule:nonzero;fill:rgb(14.79187%,28.326416%,61.029053%);fill-opacity:1;" d="M 83.09375 10.636719 L 85.765625 10.636719 L 85.765625 21.007812 L 83.09375 21.007812 L 83.09375 10.636719 "/>
<path style=" stroke:none;fill-rule:nonzero;fill:rgb(14.79187%,28.326416%,61.029053%);fill-opacity:1;" d="M 96.792969 21.007812 L 94.675781 17.195312 C 95.65625 16.851562 96.742188 15.890625 96.742188 14.089844 C 96.742188 12.160156 95.4375 10.636719 93.140625 10.636719 L 87.941406 10.636719 L 87.941406 21.007812 L 90.617188 21.007812 L 90.617188 17.523438 L 91.988281 17.523438 L 93.730469 21.007812 Z M 92.730469 15.191406 L 90.617188 15.191406 L 90.617188 12.96875 L 92.730469 12.96875 C 93.449219 12.96875 94.023438 13.359375 94.023438 14.074219 C 94.023438 14.800781 93.449219 15.191406 92.730469 15.191406 "/>
<path style=" stroke:none;fill-rule:nonzero;fill:rgb(14.79187%,28.326416%,61.029053%);fill-opacity:1;" d="M 105.324219 21.007812 L 105.324219 18.675781 L 101.160156 18.675781 L 101.160156 10.636719 L 98.484375 10.636719 L 98.484375 21.007812 L 105.324219 21.007812 "/>
<path style=" stroke:none;fill-rule:nonzero;fill:rgb(14.79187%,28.326416%,61.029053%);fill-opacity:1;" d="M 107.003906 10.636719 L 109.679688 10.636719 L 109.679688 21.007812 L 107.003906 21.007812 L 107.003906 10.636719 "/>
<path style=" stroke:none;fill-rule:nonzero;fill:rgb(14.79187%,28.326416%,61.029053%);fill-opacity:1;" d="M 121.496094 21.007812 L 121.496094 10.636719 L 118.804688 10.636719 L 118.804688 16.34375 L 114.605469 10.636719 L 111.855469 10.636719 L 111.855469 21.007812 L 114.527344 21.007812 L 114.527344 15.007812 L 118.914062 21.007812 L 121.496094 21.007812 "/>
<path style=" stroke:none;fill-rule:nonzero;fill:rgb(14.79187%,28.326416%,61.029053%);fill-opacity:1;" d="M 131.273438 21.007812 L 131.273438 18.675781 L 126.347656 18.675781 L 126.347656 16.917969 L 131.164062 16.917969 L 131.164062 14.589844 L 126.347656 14.589844 L 126.347656 12.96875 L 131.273438 12.96875 L 131.273438 10.636719 L 123.671875 10.636719 L 123.671875 21.007812 L 131.273438 21.007812 "/>
<path style=" stroke:none;fill-rule:nonzero;fill:rgb(14.79187%,28.326416%,61.029053%);fill-opacity:1;" d="M 136.996094 21.195312 C 139.773438 21.195312 141.316406 19.808594 141.316406 17.722656 C 141.316406 13.867188 135.453125 14.835938 135.453125 13.558594 C 135.453125 13.105469 135.800781 12.84375 136.570312 12.84375 C 137.597656 12.84375 138.738281 13.203125 139.609375 13.929688 L 141.070312 11.925781 C 139.964844 10.980469 138.519531 10.480469 136.851562 10.480469 C 134.195312 10.480469 132.734375 12.035156 132.734375 13.777344 C 132.734375 17.777344 138.59375 16.636719 138.59375 18.003906 C 138.59375 18.519531 138.039062 18.828125 137.132812 18.828125 C 135.707031 18.828125 134.554688 18.207031 133.8125 17.460938 L 132.394531 19.546875 C 133.433594 20.527344 134.898438 21.195312 136.996094 21.195312 "/>
<path style=" stroke:none;fill-rule:nonzero;fill:rgb(14.79187%,28.326416%,61.029053%);fill-opacity:1;" d="M 5.582031 21.007812 L 5.582031 12.96875 L 8.472656 12.96875 L 8.472656 10.636719 L 0 10.636719 L 0 12.96875 L 2.910156 12.96875 L 2.910156 21.007812 L 5.582031 21.007812 "/>
<path style=" stroke:none;fill-rule:nonzero;fill:rgb(14.79187%,28.326416%,61.029053%);fill-opacity:1;" d="M 14.96875 21.195312 C 18.296875 21.195312 19.851562 19.375 19.851562 16.796875 L 19.851562 10.636719 L 17.148438 10.636719 L 17.148438 16.714844 C 17.148438 17.941406 16.402344 18.828125 14.96875 18.828125 C 13.527344 18.828125 12.78125 17.941406 12.78125 16.714844 L 12.78125 10.636719 L 10.058594 10.636719 L 10.058594 16.808594 C 10.058594 19.355469 11.640625 21.195312 14.96875 21.195312 "/>
<path style=" stroke:none;fill-rule:nonzero;fill:rgb(14.79187%,28.326416%,61.029053%);fill-opacity:1;" d="M 30.875 21.007812 L 28.761719 17.195312 C 29.738281 16.851562 30.828125 15.890625 30.828125 14.089844 C 30.828125 12.160156 29.523438 10.636719 27.226562 10.636719 L 22.027344 10.636719 L 22.027344 21.007812 L 24.703125 21.007812 L 24.703125 17.523438 L 26.074219 17.523438 L 27.816406 21.007812 Z M 26.820312 15.191406 L 24.703125 15.191406 L 24.703125 12.96875 L 26.820312 12.96875 C 27.535156 12.96875 28.105469 13.359375 28.105469 14.074219 C 28.105469 14.800781 27.535156 15.191406 26.820312 15.191406 "/>
<path style=" stroke:none;fill-rule:nonzero;fill:rgb(14.79187%,28.326416%,61.029053%);fill-opacity:1;" d="M 41.988281 21.007812 L 37.75 15.488281 L 41.773438 10.636719 L 38.476562 10.636719 L 35.292969 14.898438 L 35.292969 10.636719 L 32.617188 10.636719 L 32.617188 21.007812 L 35.292969 21.007812 L 35.292969 17.976562 L 35.992188 17.105469 L 38.710938 21.007812 L 41.988281 21.007812 "/>
<path style=" stroke:none;fill-rule:nonzero;fill:rgb(14.79187%,28.326416%,61.029053%);fill-opacity:1;" d="M 43.09375 10.636719 L 45.769531 10.636719 L 45.769531 21.007812 L 43.09375 21.007812 L 43.09375 10.636719 "/>
<path style=" stroke:none;fill-rule:nonzero;fill:rgb(14.79187%,28.326416%,61.029053%);fill-opacity:1;" d="M 51.804688 21.195312 C 54.585938 21.195312 56.121094 19.808594 56.121094 17.722656 C 56.121094 13.867188 50.261719 14.835938 50.261719 13.558594 C 50.261719 13.105469 50.605469 12.84375 51.378906 12.84375 C 52.410156 12.84375 53.539062 13.203125 54.414062 13.929688 L 55.875 11.925781 C 54.769531 10.980469 53.328125 10.480469 51.660156 10.480469 C 49 10.480469 47.539062 12.035156 47.539062 13.777344 C 47.539062 17.777344 53.402344 16.636719 53.402344 18.003906 C 53.402344 18.519531 52.84375 18.828125 51.941406 18.828125 C 50.515625 18.828125 49.363281 18.207031 48.617188 17.460938 L 47.195312 19.546875 C 48.238281 20.527344 49.699219 21.195312 51.804688 21.195312 "/>
<path style=" stroke:none;fill-rule:nonzero;fill:rgb(14.79187%,28.326416%,61.029053%);fill-opacity:1;" d="M 67.335938 21.007812 L 67.335938 10.636719 L 64.660156 10.636719 L 64.660156 14.519531 L 60.351562 14.519531 L 60.351562 10.636719 L 57.679688 10.636719 L 57.679688 21.007812 L 60.351562 21.007812 L 60.351562 16.851562 L 64.660156 16.851562 L 64.660156 21.007812 L 67.335938 21.007812 "/>
</g>
</svg>

<svg xmlns="http://www.w3.org/2000/svg" width="176pt" height="42.187" viewBox="0 0 176 31.64"><defs><clipPath id="a"><path d="M144 0h32v31.64h-32Zm0 0"/></clipPath></defs><g clip-path="url(#a)"><path d="M144.355 15.82c0-8.734 7.083-15.816 15.829-15.816C168.918.004 176 7.086 176 15.82c0 8.739-7.082 15.82-15.816 15.82-8.746 0-15.829-7.081-15.829-15.82" style="stroke:none;fill-rule:nonzero;fill:#fff;fill-opacity:1"/></g><path d="M145.922 15.82c0-7.87 6.383-14.257 14.262-14.257 7.87 0 14.254 6.386 14.254 14.257 0 7.875-6.383 14.262-14.254 14.262-7.88 0-14.262-6.387-14.262-14.262" style="stroke:none;fill-rule:nonzero;fill:#e41f25;fill-opacity:1"/><path d="M174.04 15.82c0 7.657-6.204 13.86-13.856 13.86-7.657 0-13.868-6.203-13.868-13.86 0-7.652 6.211-13.855 13.868-13.855 7.652 0 13.855 6.203 13.855 13.855" style="stroke:none;fill-rule:nonzero;fill:#e41f25;fill-opacity:1"/><path d="m171.96 18.27-23.898 5.082s-.039.003-.078.015a14 14 0 0 1-.453-.789c.04-.008.082-.02.082-.02 3.883-.734 7.418-2.421 8.907-6.792 1.605-4.684.503-9.786-2.79-12.664.004-.004-.035-.032-.062-.055.32-.16.64-.317.973-.453a1 1 0 0 1 .097.047c6.692 2.8 10.13 6.586 10.13 10.226-.032 2.238-1.18 3.785-2.638 5.004h9.73c.27 0 .34.328 0 .399" style="stroke:none;fill-rule:nonzero;fill:#fff;fill-opacity:1"/><path d="m82.02 21.008-3.903-10.371h-3.375l-3.902 10.37h3.031l.516-1.495h4.086l.515 1.496Zm-4.274-3.828h-2.625l1.317-3.903ZM83.094 10.637h2.672v10.37h-2.672zM96.793 21.008l-2.117-3.813c.98-.343 2.066-1.304 2.066-3.105 0-1.93-1.305-3.453-3.601-3.453h-5.2v10.37h2.676v-3.484h1.371l1.742 3.485ZM92.73 15.19h-2.113V12.97h2.113c.72 0 1.293.39 1.293 1.105 0 .727-.574 1.117-1.293 1.117M105.324 21.008v-2.332h-4.164v-8.04h-2.676v10.372zM107.004 10.637h2.676v10.37h-2.676zM121.496 21.008V10.637h-2.691v5.707l-4.2-5.707h-2.75v10.37h2.672v-6l4.387 6zM131.273 21.008v-2.332h-4.925v-1.758h4.816V14.59h-4.816v-1.621h4.925v-2.332h-7.601v10.37zM136.996 21.195c2.777 0 4.32-1.386 4.32-3.472 0-3.856-5.863-2.887-5.863-4.164 0-.454.348-.715 1.117-.715 1.028 0 2.168.36 3.04 1.086l1.46-2.004c-1.105-.946-2.55-1.446-4.218-1.446-2.657 0-4.118 1.555-4.118 3.297 0 4 5.86 2.86 5.86 4.227 0 .516-.555.824-1.461.824a4.68 4.68 0 0 1-3.32-1.367l-1.418 2.086c1.039.98 2.503 1.648 4.601 1.648M5.582 21.008v-8.04h2.89v-2.331H0v2.332h2.91v8.039zM14.969 21.195c3.328 0 4.883-1.82 4.883-4.398v-6.16h-2.704v6.078c0 1.226-.746 2.113-2.18 2.113-1.44 0-2.187-.887-2.187-2.113v-6.078H10.06v6.172c0 2.546 1.582 4.386 4.91 4.386M30.875 21.008l-2.113-3.813c.976-.343 2.066-1.304 2.066-3.105 0-1.93-1.305-3.453-3.601-3.453h-5.2v10.37h2.676v-3.484h1.371l1.742 3.485ZM26.82 15.19h-2.117V12.97h2.117c.715 0 1.285.39 1.285 1.105 0 .727-.57 1.117-1.285 1.117M41.988 21.008l-4.238-5.52 4.023-4.851h-3.296l-3.184 4.261v-4.261h-2.676v10.37h2.676v-3.03l.7-.872 2.718 3.903zM43.094 10.637h2.676v10.37h-2.676zM51.805 21.195c2.78 0 4.316-1.386 4.316-3.472 0-3.856-5.86-2.887-5.86-4.164 0-.454.344-.715 1.118-.715 1.031 0 2.16.36 3.035 1.086l1.461-2.004c-1.105-.946-2.547-1.446-4.215-1.446-2.66 0-4.12 1.555-4.12 3.297 0 4 5.862 2.86 5.862 4.227 0 .516-.558.824-1.46.824a4.7 4.7 0 0 1-3.325-1.367l-1.422 2.086c1.043.98 2.504 1.648 4.61 1.648M67.336 21.008V10.637H64.66v3.883h-4.308v-3.883H57.68v10.37h2.672v-4.155h4.308v4.156z" style="stroke:none;fill-rule:nonzero;fill:#26489c;fill-opacity:1"/></svg>
